static/img/kroki/16abd47627b6d3153e1bc5cf1eb67ffa.svg

<?xml version="1.0" encoding="us-ascii" standalone="no"?><svg xmlns="http://www.w3.org/2000/svg" xmlns:xlink="http://www.w3.org/1999/xlink" contentStyleType="text/css" height="451px" preserveAspectRatio="none" style="width:736px;height:451px;" version="1.1" viewBox="0 0 736 451" width="736px" zoomAndPan="magnify"><defs/><g><!--class aws_ec2_security_group--><g id="elem_aws_ec2_security_group"><rect codeLine="22" fill="#3D176E" height="39.7891" id="aws_ec2_security_group" rx="2.5" ry="2.5" style="stroke:#000D19;stroke-width:0.5;" width="245" x="199" y="106.79"/><ellipse cx="214" cy="126.6845" fill="#ADD1B2" rx="11" ry="11" style="stroke:#181818;stroke-width:1.0;"/><path d="M216.9688,132.3252 Q216.3906,132.622 215.75,132.7627 Q215.1094,132.9189 214.4063,132.9189 Q211.9063,132.9189 210.5781,131.2783 Q209.2656,129.622 209.2656,126.497 Q209.2656,123.372 210.5781,121.7158 Q211.9063,120.0595 214.4063,120.0595 Q215.1094,120.0595 215.75,120.2158 Q216.4063,120.372 216.9688,120.6689 L216.9688,123.3877 Q216.3438,122.8095 215.75,122.5439 Q215.1563,122.2627 214.5313,122.2627 Q213.1875,122.2627 212.5,123.3408 Q211.8125,124.4033 211.8125,126.497 Q211.8125,128.5908 212.5,129.6689 Q213.1875,130.7314 214.5313,130.7314 Q215.1563,130.7314 215.75,130.4658 Q216.3438,130.1845 216.9688,129.6064 L216.9688,132.3252 Z " fill="#000000"/><text fill="#D9B8FF" font-family="Helvetica" font-size="17" lengthAdjust="spacing" textLength="203" x="233" y="132.5698">aws_ec2_security_group</text></g><!--class aws_ec2_subnet--><g id="elem_aws_ec2_subnet"><rect codeLine="24" fill="#3D176E" height="39.7891" id="aws_ec2_subnet" rx="2.5" ry="2.5" style="stroke:#000D19;stroke-width:0.5;" width="179" x="550" y="106.79"/><ellipse cx="565" cy="126.6845" fill="#ADD1B2" rx="11" ry="11" style="stroke:#181818;stroke-width:1.0;"/><path d="M567.9688,132.3252 Q567.3906,132.622 566.75,132.7627 Q566.1094,132.9189 565.4063,132.9189 Q562.9063,132.9189 561.5781,131.2783 Q560.2656,129.622 560.2656,126.497 Q560.2656,123.372 561.5781,121.7158 Q562.9063,120.0595 565.4063,120.0595 Q566.1094,120.0595 566.75,120.2158 Q567.4063,120.372 567.9688,120.6689 L567.9688,123.3877 Q567.3438,122.8095 566.75,122.5439 Q566.1563,122.2627 565.5313,122.2627 Q564.1875,122.2627 563.5,123.3408 Q562.8125,124.4033 562.8125,126.497 Q562.8125,128.5908 563.5,129.6689 Q564.1875,130.7314 565.5313,130.7314 Q566.1563,130.7314 566.75,130.4658 Q567.3438,130.1845 567.9688,129.6064 L567.9688,132.3252 Z " fill="#000000"/><text fill="#D9B8FF" font-family="Helvetica" font-size="17" lengthAdjust="spacing" textLength="137" x="584" y="132.5698">aws_ec2_subnet</text></g><!--class aws_iam_role--><g id="elem_aws_iam_role"><rect codeLine="26" fill="#3D176E" height="39.7891" id="aws_iam_role" rx="2.5" ry="2.5" style="stroke:#000D19;stroke-width:0.5;" width="157" x="7" y="106.79"/><ellipse cx="22" cy="126.6845" fill="#ADD1B2" rx="11" ry="11" style="stroke:#181818;stroke-width:1.0;"/><path d="M24.9688,132.3252 Q24.3906,132.622 23.75,132.7627 Q23.1094,132.9189 22.4063,132.9189 Q19.9063,132.9189 18.5781,131.2783 Q17.2656,129.622 17.2656,126.497 Q17.2656,123.372 18.5781,121.7158 Q19.9063,120.0595 22.4063,120.0595 Q23.1094,120.0595 23.75,120.2158 Q24.4063,120.372 24.9688,120.6689 L24.9688,123.3877 Q24.3438,122.8095 23.75,122.5439 Q23.1563,122.2627 22.5313,122.2627 Q21.1875,122.2627 20.5,123.3408 Q19.8125,124.4033 19.8125,126.497 Q19.8125,128.5908 20.5,129.6689 Q21.1875,130.7314 22.5313,130.7314 Q23.1563,130.7314 23.75,130.4658 Q24.3438,130.1845 24.9688,129.6064 L24.9688,132.3252 Z " fill="#000000"/><text fill="#D9B8FF" font-family="Helvetica" font-size="17" lengthAdjust="spacing" textLength="115" x="41" y="132.5698">aws_iam_role</text></g><!--class aws_kms_key--><g id="elem_aws_kms_key"><rect codeLine="28" fill="#3D176E" height="39.7891" id="aws_kms_key" rx="2.5" ry="2.5" style="stroke:#000D19;stroke-width:0.5;" width="158" x="345.5" y="406.16"/><ellipse cx="360.5" cy="426.0545" fill="#ADD1B2" rx="11" ry="11" style="stroke:#181818;stroke-width:1.0;"/><path d="M363.4688,431.6952 Q362.8906,431.992 362.25,432.1327 Q361.6094,432.2889 360.9063,432.2889 Q358.4063,432.2889 357.0781,430.6483 Q355.7656,428.992 355.7656,425.867 Q355.7656,422.742 357.0781,421.0858 Q358.4063,419.4295 360.9063,419.4295 Q361.6094,419.4295 362.25,419.5858 Q362.9063,419.742 363.4688,420.0389 L363.4688,422.7577 Q362.8438,422.1795 362.25,421.9139 Q361.6563,421.6327 361.0313,421.6327 Q359.6875,421.6327 359,422.7108 Q358.3125,423.7733 358.3125,425.867 Q358.3125,427.9608 359,429.0389 Q359.6875,430.1014 361.0313,430.1014 Q361.6563,430.1014 362.25,429.8358 Q362.8438,429.5545 363.4688,428.9764 L363.4688,431.6952 Z " fill="#000000"/><text fill="#D9B8FF" font-family="Helvetica" font-size="17" lengthAdjust="spacing" textLength="116" x="379.5" y="431.9398">aws_kms_key</text></g><!--class aws_redshift_cluster--><g id="elem_aws_redshift_cluster"><rect codeLine="30" fill="#3D176E" height="39.7891" id="aws_redshift_cluster" rx="2.5" ry="2.5" style="stroke:#000D19;stroke-width:0.5;" width="213" x="374" y="206.58"/><ellipse cx="389" cy="226.4745" fill="#ADD1B2" rx="11" ry="11" style="stroke:#181818;stroke-width:1.0;"/><path d="M391.9688,232.1152 Q391.3906,232.412 390.75,232.5527 Q390.1094,232.7089 389.4063,232.7089 Q386.9063,232.7089 385.5781,231.0683 Q384.2656,229.412 384.2656,226.287 Q384.2656,223.162 385.5781,221.5058 Q386.9063,219.8495 389.4063,219.8495 Q390.1094,219.8495 390.75,220.0058 Q391.4063,220.162 391.9688,220.4589 L391.9688,223.1777 Q391.3438,222.5995 390.75,222.3339 Q390.1563,222.0527 389.5313,222.0527 Q388.1875,222.0527 387.5,223.1308 Q386.8125,224.1933 386.8125,226.287 Q386.8125,228.3808 387.5,229.4589 Q388.1875,230.5214 389.5313,230.5214 Q390.1563,230.5214 390.75,230.2558 Q391.3438,229.9745 391.9688,229.3964 L391.9688,232.1152 Z " fill="#000000"/><text fill="#D9B8FF" font-family="Helvetica" font-size="17" lengthAdjust="spacing" textLength="171" x="408" y="232.3598">aws_redshift_cluster</text></g><!--class aws_sagemaker_processing_job--><g id="elem_aws_sagemaker_processing_job"><rect codeLine="32" fill="#3D176E" height="39.7891" id="aws_sagemaker_processing_job" rx="2.5" ry="2.5" style="stroke:#000D19;stroke-width:0.5;" width="306" x="168.5" y="306.37"/><ellipse cx="183.5" cy="326.2645" fill="#ADD1B2" rx="11" ry="11" style="stroke:#181818;stroke-width:1.0;"/><path d="M186.4688,331.9052 Q185.8906,332.202 185.25,332.3427 Q184.6094,332.4989 183.9063,332.4989 Q181.4063,332.4989 180.0781,330.8583 Q178.7656,329.202 178.7656,326.077 Q178.7656,322.952 180.0781,321.2958 Q181.4063,319.6395 183.9063,319.6395 Q184.6094,319.6395 185.25,319.7958 Q185.9063,319.952 186.4688,320.2489 L186.4688,322.9677 Q185.8438,322.3895 185.25,322.1239 Q184.6563,321.8427 184.0313,321.8427 Q182.6875,321.8427 182,322.9208 Q181.3125,323.9833 181.3125,326.077 Q181.3125,328.1708 182,329.2489 Q182.6875,330.3114 184.0313,330.3114 Q184.6563,330.3114 185.25,330.0458 Q185.8438,329.7645 186.4688,329.1864 L186.4688,331.9052 Z " fill="#000000"/><text fill="#D9B8FF" font-family="Helvetica" font-size="17" lengthAdjust="spacing" textLength="264" x="202.5" y="332.1498">aws_sagemaker_processing_job</text></g><!--class aws_vpc--><g id="elem_aws_vpc"><rect codeLine="34" fill="#3D176E" height="39.7891" id="aws_vpc" rx="2.5" ry="2.5" style="stroke:#000D19;stroke-width:0.5;" width="112" x="441.5" y="7"/><ellipse cx="456.5" cy="26.8945" fill="#ADD1B2" rx="11" ry="11" style="stroke:#181818;stroke-width:1.0;"/><path d="M459.4688,32.5352 Q458.8906,32.832 458.25,32.9727 Q457.6094,33.1289 456.9063,33.1289 Q454.4063,33.1289 453.0781,31.4883 Q451.7656,29.832 451.7656,26.707 Q451.7656,23.582 453.0781,21.9258 Q454.4063,20.2695 456.9063,20.2695 Q457.6094,20.2695 458.25,20.4258 Q458.9063,20.582 459.4688,20.8789 L459.4688,23.5977 Q458.8438,23.0195 458.25,22.7539 Q457.6563,22.4727 457.0313,22.4727 Q455.6875,22.4727 455,23.5508 Q454.3125,24.6133 454.3125,26.707 Q454.3125,28.8008 455,29.8789 Q455.6875,30.9414 457.0313,30.9414 Q457.6563,30.9414 458.25,30.6758 Q458.8438,30.3945 459.4688,29.8164 L459.4688,32.5352 Z " fill="#000000"/><text fill="#D9B8FF" font-family="Helvetica" font-size="17" lengthAdjust="spacing" textLength="70" x="475.5" y="32.7798">aws_vpc</text></g><!--link aws_ec2_security_group to aws_redshift_cluster--><g id="link_aws_ec2_security_group_aws_redshift_cluster"><path codeLine="36" d="M352.91,147.01 C379.15,163.15 416.59,186.17 444.13,203.11 " fill="none" id="aws_ec2_security_group-to-aws_redshift_cluster" style="stroke:#1A83AF;stroke-width:2.0;"/><polygon fill="#1A83AF" points="448.15,206.2,442.5739,198.0817,443.8893,203.5835,438.3875,204.8989,448.15,206.2" style="stroke:#1A83AF;stroke-width:2.0;"/></g><!--link aws_ec2_security_group to aws_sagemaker_processing_job--><g id="link_aws_ec2_security_group_aws_sagemaker_processing_job"><path codeLine="37" d="M321.5,146.99 C321.5,182.99 321.5,260.34 321.5,300.27 " fill="none" id="aws_ec2_security_group-to-aws_sagemaker_processing_job" style="stroke:#1A83AF;stroke-width:2.0;"/><polygon fill="#1A83AF" points="321.5,304.88,325.5,295.88,321.5,299.88,317.5,295.88,321.5,304.88" style="stroke:#1A83AF;stroke-width:2.0;"/></g><!--link aws_ec2_subnet to aws_redshift_cluster--><g id="link_aws_ec2_subnet_aws_redshift_cluster"><path codeLine="38" d="M608.09,147.01 C581.85,163.15 544.41,186.17 516.87,203.11 " fill="none" id="aws_ec2_subnet-to-aws_redshift_cluster" style="stroke:#1A83AF;stroke-width:2.0;"/><polygon fill="#1A83AF" points="512.85,206.2,522.6125,204.8989,517.1107,203.5835,518.4261,198.0817,512.85,206.2" style="stroke:#1A83AF;stroke-width:2.0;"/></g><!--link aws_ec2_subnet to aws_sagemaker_processing_job--><g id="link_aws_ec2_subnet_aws_sagemaker_processing_job"><path codeLine="39" d="M639.3,147 C637.95,173.17 631.59,219.69 604.5,246.37 C571.22,279.16 525.54,298.58 480.58,310.01 " fill="none" id="aws_ec2_subnet-to-aws_sagemaker_processing_job" style="stroke:#1A83AF;stroke-width:2.0;"/><polygon fill="#1A83AF" points="475.82,311.43,485.5167,313.1546,480.6741,310.2308,483.5979,305.3881,475.82,311.43" style="stroke:#1A83AF;stroke-width:2.0;"/></g><!--link aws_iam_role to aws_redshift_cluster--><g id="link_aws_iam_role_aws_redshift_cluster"><path codeLine="40" d="M163.54,147.01 C230.79,163.66 327.63,187.63 396.54,204.69 " fill="none" id="aws_iam_role-to-aws_redshift_cluster" style="stroke:#1A83AF;stroke-width:2.0;"/><polygon fill="#1A83AF" points="401.29,206.11,393.5121,200.0681,396.4359,204.9108,391.5933,207.8346,401.29,206.11" style="stroke:#1A83AF;stroke-width:2.0;"/></g><!--link aws_iam_role to aws_sagemaker_processing_job--><g id="link_aws_iam_role_aws_sagemaker_processing_job"><path codeLine="41" d="M108.56,146.99 C152.27,183.58 246.99,262.89 293.96,302.21 " fill="none" id="aws_iam_role-to-aws_sagemaker_processing_job" style="stroke:#1A83AF;stroke-width:2.0;"/><polygon fill="#1A83AF" points="297.35,305.88,293.0129,297.0375,293.5147,302.6721,287.8802,303.1739,297.35,305.88" style="stroke:#1A83AF;stroke-width:2.0;"/></g><!--link aws_redshift_cluster to aws_kms_key--><g id="link_aws_redshift_cluster_aws_kms_key"><path codeLine="42" d="M487.53,246.64 C495.22,270.67 504.9,312.77 492.5,346.16 C484.44,367.85 467.45,387.57 452.47,401.87 " fill="none" id="aws_redshift_cluster-to-aws_kms_key" style="stroke:#1A83AF;stroke-width:2.0;"/><polygon fill="#1A83AF" points="449.3,404.76,458.602,401.5239,452.9481,401.3408,453.1313,395.6869,449.3,404.76" style="stroke:#1A83AF;stroke-width:2.0;"/></g><!--link aws_redshift_cluster to aws_sagemaker_processing_job--><g id="link_aws_redshift_cluster_aws_sagemaker_processing_job"><path codeLine="43" d="M449.09,246.8 C422.85,262.94 385.41,285.96 357.87,302.9 " fill="none" id="aws_redshift_cluster-to-aws_sagemaker_processing_job" style="stroke:#1A83AF;stroke-width:2.0;"/><polygon fill="#1A83AF" points="353.85,305.99,363.6125,304.6889,358.1107,303.3735,359.4261,297.8717,353.85,305.99" style="stroke:#1A83AF;stroke-width:2.0;"/></g><!--link aws_sagemaker_processing_job to aws_kms_key--><g id="link_aws_sagemaker_processing_job_aws_kms_key"><path codeLine="44" d="M341.85,346.59 C358.64,362.52 382.5,385.18 400.27,402.05 " fill="none" id="aws_sagemaker_processing_job-to-aws_kms_key" style="stroke:#1A83AF;stroke-width:2.0;"/><polygon fill="#1A83AF" points="403.19,404.78,399.4144,395.6836,399.5629,401.3385,393.908,401.487,403.19,404.78" style="stroke:#1A83AF;stroke-width:2.0;"/></g><!--link aws_vpc to aws_ec2_security_group--><g id="link_aws_vpc_aws_ec2_security_group"><path codeLine="45" d="M462.73,47.22 C433.56,63.43 391.9,86.58 361.38,103.53 " fill="none" id="aws_vpc-to-aws_ec2_security_group" style="stroke:#1A83AF;stroke-width:2.0;"/><polygon fill="#1A83AF" points="357.2,106.41,367.01,105.5358,361.5708,103.9818,363.1248,98.5426,357.2,106.41" style="stroke:#1A83AF;stroke-width:2.0;"/></g><!--link aws_vpc to aws_ec2_subnet--><g id="link_aws_vpc_aws_ec2_subnet"><path codeLine="46" d="M525.55,47.22 C548.89,63.29 582.15,86.19 606.71,103.11 " fill="none" id="aws_vpc-to-aws_ec2_subnet" style="stroke:#1A83AF;stroke-width:2.0;"/><polygon fill="#1A83AF" points="610.5,106.41,605.3695,98.003,606.3865,103.5677,600.8218,104.5846,610.5,106.41" style="stroke:#1A83AF;stroke-width:2.0;"/></g><!--link aws_vpc to aws_redshift_cluster--><g id="link_aws_vpc_aws_redshift_cluster"><path codeLine="47" d="M495.84,47.2 C492.74,83.21 486.09,160.55 482.65,200.48 " fill="none" id="aws_vpc-to-aws_redshift_cluster" style="stroke:#1A83AF;stroke-width:2.0;"/><polygon fill="#1A83AF" points="482.17,205.09,486.9261,196.4656,482.5982,200.1084,478.9555,195.7805,482.17,205.09" style="stroke:#1A83AF;stroke-width:2.0;"/></g><!--SRC=[bP8nRy8m48LtVeKbPYHIr09BfHG9jGkgIhUgYXpxJDmaTdHsG6dL_zu4A4fj4kYGvTvtVk_kaaWE1FB2LYI7F0Oq0vDALL2aEGaHzMwXCuraA0GLawahBhMo5u4LpO4yGhO5AnbrYTT4ibI1CUIc9JrGbcvGbueVdhT8bQabKBP5BJ9gJ6WjohYqq0h3v_5C29Tq7nrEU32z0m_Jo06Fo7Wyvi7SHIvQzSvz8jRo4qZGNjfAM_1YUXPxgZTbGxH2UeF-wfqPdoddKct8RQlsSiY42l1FVPrGhdSDBMXcsZR60eAsLG4BRogOpxYOdeMVkc3MR8xGdOc0tKG6M8dILb635kHhyEq2PQp0EeAaUOGw0wUSvlK7bLD5u2QHmaOiAvjyZcpe1dAQ0aO5QbR_nFKIeWyTEzYsOFjAH_3Hsp08PvDm-JwwF-jwTMDNde6paNyuTZJqEfrMV9rFDzxhujt6Qp_Uz4gwrwppqhscpU4zm3_a1NP_Wcx6dUm7]--></g></svg>

<svg xmlns="http://www.w3.org/2000/svg" width="736" height="451" preserveAspectRatio="none" style="width:736px;height:451px"><rect width="245" height="39.789" x="199" y="106.79" fill="#3D176E" rx="2.5" ry="2.5" style="stroke:#000d19;stroke-width:.5"/><circle cx="214" cy="126.684" r="11" fill="#ADD1B2" style="stroke:#181818;stroke-width:1"/><path d="M216.969 132.325q-.578.297-1.219.438-.64.156-1.344.156-2.5 0-3.828-1.64-1.312-1.657-1.312-4.782t1.312-4.781q1.328-1.656 3.828-1.656.703 0 1.344.156.656.156 1.219.453v2.719q-.625-.579-1.219-.844-.594-.281-1.219-.281-1.344 0-2.031 1.078-.688 1.062-.688 3.156 0 2.094.688 3.172.688 1.062 2.031 1.062.625 0 1.219-.265.594-.281 1.219-.86v2.72Z"/><text x="233" y="132.57" fill="#D9B8FF" font-family="Helvetica" font-size="17" textLength="203">aws_ec2_security_group</text><rect width="179" height="39.789" x="550" y="106.79" fill="#3D176E" rx="2.5" ry="2.5" style="stroke:#000d19;stroke-width:.5"/><circle cx="565" cy="126.684" r="11" fill="#ADD1B2" style="stroke:#181818;stroke-width:1"/><path d="M567.969 132.325q-.578.297-1.219.438-.64.156-1.344.156-2.5 0-3.828-1.64-1.312-1.657-1.312-4.782t1.312-4.781q1.328-1.656 3.828-1.656.703 0 1.344.156.656.156 1.219.453v2.719q-.625-.579-1.219-.844-.594-.281-1.219-.281-1.343 0-2.031 1.078-.688 1.062-.688 3.156 0 2.094.688 3.172.688 1.062 2.031 1.062.625 0 1.219-.265.594-.281 1.219-.86v2.72Z"/><text x="584" y="132.57" fill="#D9B8FF" font-family="Helvetica" font-size="17" textLength="137">aws_ec2_subnet</text><rect width="157" height="39.789" x="7" y="106.79" fill="#3D176E" rx="2.5" ry="2.5" style="stroke:#000d19;stroke-width:.5"/><circle cx="22" cy="126.684" r="11" fill="#ADD1B2" style="stroke:#181818;stroke-width:1"/><path d="M24.969 132.325q-.578.297-1.219.438-.64.156-1.344.156-2.5 0-3.828-1.64-1.312-1.657-1.312-4.782t1.312-4.781q1.328-1.656 3.828-1.656.703 0 1.344.156.656.156 1.219.453v2.719q-.625-.579-1.219-.844-.594-.281-1.219-.281-1.343 0-2.031 1.078-.688 1.062-.688 3.156 0 2.094.688 3.172.688 1.062 2.031 1.062.625 0 1.219-.265.594-.281 1.219-.86v2.72Z"/><text x="41" y="132.57" fill="#D9B8FF" font-family="Helvetica" font-size="17" textLength="115">aws_iam_role</text><rect width="158" height="39.789" x="345.5" y="406.16" fill="#3D176E" rx="2.5" ry="2.5" style="stroke:#000d19;stroke-width:.5"/><circle cx="360.5" cy="426.055" r="11" fill="#ADD1B2" style="stroke:#181818;stroke-width:1"/><path d="M363.469 431.695q-.578.297-1.219.438-.64.156-1.344.156-2.5 0-3.828-1.64-1.312-1.657-1.312-4.782t1.312-4.781q1.328-1.656 3.828-1.656.703 0 1.344.156.656.156 1.219.453v2.719q-.625-.578-1.219-.844-.594-.281-1.219-.281-1.344 0-2.031 1.078-.688 1.062-.688 3.156 0 2.094.688 3.172.688 1.062 2.031 1.062.625 0 1.219-.265.594-.281 1.219-.86v2.72Z"/><text x="379.5" y="431.94" fill="#D9B8FF" font-family="Helvetica" font-size="17" textLength="116">aws_kms_key</text><rect width="213" height="39.789" x="374" y="206.58" fill="#3D176E" rx="2.5" ry="2.5" style="stroke:#000d19;stroke-width:.5"/><circle cx="389" cy="226.475" r="11" fill="#ADD1B2" style="stroke:#181818;stroke-width:1"/><path d="M391.969 232.115q-.578.297-1.219.438-.64.156-1.344.156-2.5 0-3.828-1.64-1.312-1.657-1.312-4.782t1.312-4.781q1.328-1.656 3.828-1.656.703 0 1.344.156.656.156 1.219.453v2.719q-.625-.578-1.219-.844-.594-.281-1.219-.281-1.344 0-2.031 1.078-.688 1.062-.688 3.156 0 2.094.688 3.172.688 1.062 2.031 1.062.625 0 1.219-.265.594-.281 1.219-.86v2.72Z"/><text x="408" y="232.36" fill="#D9B8FF" font-family="Helvetica" font-size="17" textLength="171">aws_redshift_cluster</text><rect width="306" height="39.789" x="168.5" y="306.37" fill="#3D176E" rx="2.5" ry="2.5" style="stroke:#000d19;stroke-width:.5"/><circle cx="183.5" cy="326.264" r="11" fill="#ADD1B2" style="stroke:#181818;stroke-width:1"/><path d="M186.469 331.905q-.578.297-1.219.438-.64.156-1.344.156-2.5 0-3.828-1.64-1.312-1.657-1.312-4.782t1.312-4.781q1.328-1.656 3.828-1.656.703 0 1.344.156.656.156 1.219.453v2.719q-.625-.579-1.219-.844-.594-.281-1.219-.281-1.344 0-2.031 1.078-.688 1.062-.688 3.156 0 2.094.688 3.172.688 1.062 2.031 1.062.625 0 1.219-.265.594-.281 1.219-.86v2.72Z"/><text x="202.5" y="332.15" fill="#D9B8FF" font-family="Helvetica" font-size="17" textLength="264">aws_sagemaker_processing_job</text><rect width="112" height="39.789" x="441.5" y="7" fill="#3D176E" rx="2.5" ry="2.5" style="stroke:#000d19;stroke-width:.5"/><circle cx="456.5" cy="26.895" r="11" fill="#ADD1B2" style="stroke:#181818;stroke-width:1"/><path d="M459.469 32.535q-.578.297-1.219.438-.64.156-1.344.156-2.5 0-3.828-1.64-1.312-1.657-1.312-4.782t1.312-4.781q1.328-1.656 3.828-1.656.703 0 1.344.156.656.156 1.219.453v2.719q-.625-.578-1.219-.844-.594-.281-1.219-.281-1.344 0-2.031 1.078-.688 1.062-.688 3.156 0 2.094.688 3.172.688 1.062 2.031 1.062.625 0 1.219-.265.594-.281 1.219-.86v2.72Z"/><text x="475.5" y="32.78" fill="#D9B8FF" font-family="Helvetica" font-size="17" textLength="70">aws_vpc</text><path fill="none" d="M352.91 147.01c26.24 16.14 63.68 39.16 91.22 56.1" style="stroke:#1a83af;stroke-width:2"/><path fill="#1A83AF" d="m448.15 206.2-5.576-8.118 1.315 5.501-5.502 1.316 9.763 1.301z" style="stroke:#1a83af;stroke-width:2"/><path fill="none" d="M321.5 146.99v153.28" style="stroke:#1a83af;stroke-width:2"/><path fill="#1A83AF" d="m321.5 304.88 4-9-4 4-4-4 4 9z" style="stroke:#1a83af;stroke-width:2"/><path fill="none" d="M608.09 147.01c-26.24 16.14-63.68 39.16-91.22 56.1" style="stroke:#1a83af;stroke-width:2"/><path fill="#1A83AF" d="m512.85 206.2 9.762-1.301-5.501-1.316 1.315-5.501-5.576 8.118z" style="stroke:#1a83af;stroke-width:2"/><path fill="none" d="M639.3 147c-1.35 26.17-7.71 72.69-34.8 99.37-33.28 32.79-78.96 52.21-123.92 63.64" style="stroke:#1a83af;stroke-width:2"/><path fill="#1A83AF" d="m475.82 311.43 9.697 1.725-4.843-2.924 2.924-4.843-7.778 6.042z" style="stroke:#1a83af;stroke-width:2"/><path fill="none" d="M163.54 147.01c67.25 16.65 164.09 40.62 233 57.68" style="stroke:#1a83af;stroke-width:2"/><path fill="#1A83AF" d="m401.29 206.11-7.778-6.042 2.924 4.843-4.843 2.924 9.697-1.725z" style="stroke:#1a83af;stroke-width:2"/><path fill="none" d="M108.56 146.99c43.71 36.59 138.43 115.9 185.4 155.22" style="stroke:#1a83af;stroke-width:2"/><path fill="#1A83AF" d="m297.35 305.88-4.337-8.842.502 5.634-5.635.502 9.47 2.706z" style="stroke:#1a83af;stroke-width:2"/><path fill="none" d="M487.53 246.64c7.69 24.03 17.37 66.13 4.97 99.52-8.06 21.69-25.05 41.41-40.03 55.71" style="stroke:#1a83af;stroke-width:2"/><path fill="#1A83AF" d="m449.3 404.76 9.302-3.236-5.654-.183.183-5.654-3.831 9.073z" style="stroke:#1a83af;stroke-width:2"/><path fill="none" d="M449.09 246.8c-26.24 16.14-63.68 39.16-91.22 56.1" style="stroke:#1a83af;stroke-width:2"/><path fill="#1A83AF" d="m353.85 305.99 9.762-1.301-5.501-1.316 1.315-5.501-5.576 8.118z" style="stroke:#1a83af;stroke-width:2"/><path fill="none" d="M341.85 346.59c16.79 15.93 40.65 38.59 58.42 55.46" style="stroke:#1a83af;stroke-width:2"/><path fill="#1A83AF" d="m403.19 404.78-3.776-9.096.149 5.654-5.655.149 9.282 3.293z" style="stroke:#1a83af;stroke-width:2"/><path fill="none" d="M462.73 47.22c-29.17 16.21-70.83 39.36-101.35 56.31" style="stroke:#1a83af;stroke-width:2"/><path fill="#1A83AF" d="m357.2 106.41 9.81-.874-5.44-1.554 1.555-5.44-5.925 7.868z" style="stroke:#1a83af;stroke-width:2"/><path fill="none" d="M525.55 47.22c23.34 16.07 56.6 38.97 81.16 55.89" style="stroke:#1a83af;stroke-width:2"/><path fill="#1A83AF" d="m610.5 106.41-5.13-8.407 1.016 5.565-5.564 1.017 9.678 1.825z" style="stroke:#1a83af;stroke-width:2"/><path fill="none" d="M495.84 47.2c-3.1 36.01-9.75 113.35-13.19 153.28" style="stroke:#1a83af;stroke-width:2"/><path fill="#1A83AF" d="m482.17 205.09 4.756-8.624-4.328 3.642-3.643-4.328 3.215 9.31z" style="stroke:#1a83af;stroke-width:2"/></svg>
